X:1
T:Ave Sanctissima Maria
T:Ave Sanctissima Maria
T:Heinrich Isaac (c. 1445-1517)
T:2009 by Paul R Marchesano. May be freely copied for nonprofit use.
T:2009 by Paul R Marchesano. May be freely copied for nonprofit use.
T:2009 by Paul R Marchesano. May be freely copied for nonprofit use.
T:2009 by Paul R Marchesano. May be freely copied for nonprofit use.
T:2009 by Paul R Marchesano. May be freely copied for nonprofit use.
T:2009 by Paul R Marchesano. May be freely copied for nonprofit use.
T:2009 by Paul R Marchesano. May be freely copied for nonprofit use.
T:2009 by Paul R Marchesano. May be freely copied for nonprofit use.
T:2009 by Paul R Marchesano. May be freely copied for nonprofit use.
T:2009 by Paul R Marchesano. May be freely copied for nonprofit use.
T:2009 by Paul R Marchesano. May be freely copied for nonprofit use.
T:2009 by Paul R Marchesano. May be freely copied for nonprofit use.
T:2009 by Paul R Marchesano. May be freely copied for nonprofit use.
T:2009 by Paul R Marchesano. May be freely copied for nonprofit use.
C:Heinrich Isaac
C:(c. 1445-1517)
Z:2009 by Paul R Marchesano. May be freely copied for nonprofit use.
%%score [ 1 2 3 4 ]
L:1/8
Q:1/4=120
M:2/2
K:C
V:1 treble nm="Soprano" snm="S."
V:2 treble-8 nm="Alto" snm="A."
V:3 treble-8 nm="Tenor" snm="T."
V:4 bass nm="Bass" snm="B."
V:1
 z8 | z8 | z8 | C8 | D8 | CDEF G2 A2 | _B2 A4 GF | E3 D G4 | A8 | GABc d2 e2 | f2 e4 dc | %11
w: |||A-||ve _ _ _ _ _|_ _ _ _||A-|ve _ _ _ _ _|_ _ _ _|
 B2 c4 B2 | c8 | z8 | z2 G2 A4 | F4 G4 | E2 F2 D4 | C3 D E4 | z8 | z8 | z8 | z2 D3 EFG | %22
w: |||san- *|ctis- *|* * si-|ma _ _||||Ma- * * *|
 A2 _B4 A2 | _BAGF ED A2- | AG G4 ^F2 | G8 | z8 | z8 | z4 G4 | A2 B2 c2 d2 | B3 G A2 G2 | F4 E4 | %32
w: * ri- *|||a,|||ma-|* * ter De-||* i,|
 z8 | z8 | z8 | z8 | z4 d4 | d4 G4 | d4 d4 | e4 d4- | d2 B2 c4 | B4 z2 B2 | c2 d2 BG g2- | %43
w: ||||Re-|gi- na|cae- li,|por- *||ta por-||
 gf e4 d2 | e4 z2 B2 | B3 A/G/ B2 A2- | AG G4 ^F2 | G6 FE | D2 E4 DC | B,4 z2 B2 | c2 e4 dc | %51
w: |ta pa-|ra- * * * di-||si, _ _|_ _ _ _|* Do-||
 B3 A d4- | d2 c2 c4- | c2 BA B2 cB | c8- | c8 ||"^Secunda pars" d4 B4 | c4 d4 | B2 G2 A4 | G4 z4 | %60
w: * mi- na|_ _ mun-||di;|_|Tu es|_ sin-|gu- * la-|ris|
 z8 | z8 | z4 z2 G2 | A2 B2 c2 G2 | A4 G2 F2 | E4 DEFG | A2 _B4 A2 | _B2 G2 z4 | z8 | z4 c4 | %70
w: ||Vir-|* * * go|pu- * *|||* ra.||Tu|
 c4 c4 | c8 | d8 | c8 | d8 | c4 z2 e2 | e2 e2 d2 f2- | f2 e4 d2 | e8 | z8 | z8 | z4 e4 | c4 d4- | %83
w: con- ce-|pi-|sti|Je-||sum Tu|con- ce- pi- sti|_ Je- *|sum|||si-|ne pec-|
 d4 c4 | =B2 G2 c4- | c2 BA B4 | c4 z2 g2 | g2 g2 g4 | c4 z4 | z8 | z2 G2 A2 c2 | B8 | z4 z2 d2- | %93
w: * ca-|||to, tu|pe- pe- ri-|sti||cre- a- to-|rem|cre-|
 d2 B2 e3 d | c2 B2 e3 d | cB c2 B2 e2 | d2 c4 B2 | c4 z4 | z2 e2 g3 f | e2 d2 c2 d2 | B2 G2 A4 | %101
w: * a- to- *||||rem|et sal- va-|to- * * *|* * rem|
 G6 B2 | A3 G c4- | c2 BA B4 | c4 z2 A2 | B2 d3 B c2 | B2 G2 z4 | z8 | z8 | z2 d2 d2 c2 | %110
w: mun- *|||di in|quo e- * *|* go,|||in quo _|
 d3 c B2 A2 | G2 g4 ^f2 | g4 z4 | c8 | d8 | e8 | d8 | c2 e4 dc | B2 c4 B2 | c3 B G2 A2 | B2 A4 GF | %121
w: e- * * *||go,|non|du-||||* * bi-|to. _ _ _|_ _ _ _|
 E8- | E8 ||[M:3/2]"^Tertia pars" z12 | z12 | z12 | z12 | z4 z4 f4 | e4 g6 f2 | e8 d4 | e8 z4 | %131
w: ||||||Je-|||sum|
 c8 c4 | c4 d8 | c4 e6 d2 | c8 B4 | c6 B2 A2 G2- | G2 F2 G8 | c6 B2 A4 | G2 F2 E4 D4 | G8 ^F4 | %140
w: Tu- um|di- le-||||* * ctum|fi- * *||* li-|
[M:2/2] G4 B4 | B6 B2 | B4 c4 | B2 c2 A4 |[M:3/2] G12- | G12 | z12 | z12 | z4 z4 c4 | c6 d2 e4 | %150
w: um, et|li- be-|ra _|nos _ _|_||||ab|o- * *|
 f6 e2 d4 | c8 B4 |[M:2/2] c6 BA x | G4 z4 | z8 | z8 | c4 d2 e2- | e2 d2 c2 d2- | dc c4 B2 | %159
w: |* mni-|bus _ _|_|||ma- * *|||
[M:3/2] c8 B4 | B6 B2 B4 | c6 A2 B4 | c4 A8 | G12- | G12 | z12 | z12 | z12 | z12 | z4 z4 c4 | %170
w: lis, et|li- be- ra|_ _ nos|_ _|||||||ab|
 c6 d2 e4 | f6 e2 d2 G2 | c8 B4 |[M:2/2] c8 | z8 | z8 | z8 | z2 c2 d4 | e6 d2- | d4 c2 d2- | %180
w: o- * *||* mni-|bus||||ma- *|||
 dc c4 B2 | c8 |] %182
w: |lis.|
V:2
 G8 | A8 | GABc d2 e2 | f2 e4 d2 | B2 c4 B2 | c4 e4 | d3 c A2 B2 | c3 d ec g2- | g2 ^fe f4 | g8 | %10
w: A-||ve _ _ _ _ _|_ _ _|||||||
 z2 c2 e2 f2 | g6 G2 | G4 z4 | A4 B4 | c4 A4 | _B2 A3 G G2- | G2 F2 G4 | z2 A3 Bcd | e2 f4 e2 | %19
w: A- * *||ve|san- ctis-|||* si- ma|Ma- * * *|* ri- *|
 fedc BA e2- | ed d4 ^c2 | d4 z2 d2 | f6 e2 | d4 e4 | c4 d4 | B3 A B2 c2 | A2 d4 cB | AG B2 A4 | %28
w: ||a, Ma-|ri- *||||||
 G4 z4 | z8 | z8 | z4 z2 c2 | d2 e2 f2 g2 | f2 e4 d2 | g3 f/e/ e3 d/c/ | B2 G2 g4 | z8 | z8 | z8 | %39
w: a,|||ma-|* * ter De-|||* * i,||||
 z4 g4 | g4 c4 | g4 g4 | a4 g3 x | g2 a2 f4 | e3 d/c/ B2 G2 | g4 z4 | e4 d4 | d6 c2 | B2 c2 A4 | %49
w: Re-|gi- na|cae- li,|por- *|||ta|pa- ra-|di- *||
 G8 | c3 d e2 f2 | g4 z4 | z2 g2 e2 f2 | g8 | z2 G2 E2 F2 | G8 || z2 g4 e2- | e2 f4 d2 | %58
w: si,|Do- * * mi-|na|mun- * *|di;|mun- * *|di;|Tu es|_ _ sin-|
 ed g3 efg | e3 c c4 | z8 | z8 | z8 | z4 z2 e2 | A3 B c2 d2- | d2 ^c2 d4- | d8 | _B3 A _B2 c2- | %68
w: gu- * la- * * *|* * ris||||Vir-|go _ _ pu-||||
 c2 =BA B4 | A2 c3 d e2 | A4 z4 | z4 a4 | a6 a2 | a4 a2 a2- | a2 ^g^f g4 | a4 z2 a2 | %76
w: ||ra.|Tu|con- ce-|pi- sti Je-||sum Tu|
 a2 a2 d2 a2- | a2 g2 f4 | e3 d/c/ c4 | z8 | z8 | z4 G4- | G4 _B4- | B2 AG G3 A | =BG g4 ^f2 | %85
w: con- ce- pi- sti|_ Je- *|sum _ _ _|||si-|* ne|_ pec- * ca- *||
 g4 z4 | z2 g2 g2 g2 | g4 c4 | z2 g4 e2 | a3 g f2 e2 | fd g4 ^f2 | g4 z4 | z2 g2 g2 g2 | g4 c4 | %94
w: to,|tu pe- pe-|ri- sti|cre- a-|to- * * *||rem|tu pe- pe-|ri- sti|
 z2 g4 e2 | a3 g f2 e2 | f2 g2 G4 | z2 e2 g4 | z4 z2 e2 | g3 f e2 d2- | d2 g4 ^f2 | g8 | e4 c4 | %103
w: cre- a-|to- * * *|* * rem|et _|et|sal- va- to- *||rem|_ _|
 g8 | z2 g3 f e2 | d3 c B2 A2 | G2 g4 f2 | e2 c2 d4 | c4 z4 | z8 | z2 g4 f2 | g4 a4 | g4 z2 g2 | %113
w: |mun- * *||di in quo|e- * *|go,||in quo|e- *|go, in|
 f4 (3e3 d c2 | (3B3 c d2 (3B2 A2 B2 | c4 G4 | g8 | g4 z2 g2- | g2 f2 g4 | e4 z4 | z2 A2 d4 | %121
w: quo e- * *||||go, non|_ _ _||non du-|
 G4 A4 | G8 ||[M:3/2] z12 | z12 | z12 | z12 | z4 z4 d4 | g6 e2 g4 | a4 f8 | e6 c2 d2 e2 | %131
w: bi- *|to.|||||Je-|||sum _ _ _|
 f4 e6 d2 | c8 B4 | c2 A2 a4 g4 | f4 g8 | e4 c6 d2 | e2 f2 d2 c2 d4 | e8 f4 | g6 a2 g4 | c4 d8 | %140
w: Tu- * *|* um|di- * le- *||||* ctum|fi- * li-||
[M:2/2] B2 G4 g2 | g2 g2 g4 | z2 g2 e2 f2 | g2 G2 A4 |[M:3/2] B8 G4 | G6 A2 B4 | c6 B2 A4 | G8 F4 | %148
w: um, _ et|li- be- ra|nos _ _|_ _ _|* ab|o- * *||* mni-|
 G8 g4 | a8 g4 | f4 d8 | g6 f2 d4 |[M:2/2] e3 d/c/ g4 x | z2 G2 A2 B2- | B2 A2 G2 A2- | AG G4 F2 | %156
w: bus ab|o- *||* * mni-|bus _ _ _|ma- * *|||
 G4 z2 B2- | Bc d2 e2 d2 | e2 f2 g4 |[M:3/2] e8 g4 | g6 g2 g4 | e4 f4 g4 | G4 A6 GA | B8 c4 | %164
w: lis, ma-|||lis, et|li- be- ra|_ _ nos|_ _ _ _||
 G4 z4 c4 | c6 d2 e4 | f6 e2 d2 G2 | c8 B4 | c2 d2 e2 f2 g4 | a8 g4 | a6 f2 g4 | f4 d6 e2 | %172
w: * ab|o- * *||* mni-|bus _ _ _ _|ma- *|||
 f2 e2 g6 fe |[M:2/2] e3 d cB A2- | AG A2 B3 A | B2 c3 B A2 | B3 A G2 A2- | AG G4 F2 | %178
w: ||||||
 G2 g2 a2 f2 | g3 f e2 d2 | e2 f2 g4 | g8 |] %182
w: lis, ma- * *|||lis.|
V:3
 z8 | z8 | z8 | z8 | z8 | z8 | z8 | z8 | z8 | z8 | c8 | d8 | c8 | z4 d4 | e4 f4 | d4 e2 d2- | %16
w: ||||||||||A-||ve|san-|ctis- *||
 dc c4 B2 | c8 | z8 | z8 | z8 | z4 d4 | d6 c2 | _B4 c4 | A8 | G8 | z8 | z8 | z4 z2 c2- | %29
w: * * * si-|ma||||Ma-|ri- *|||a,|||ma-|
 c2 d2 e2 f2 | g4 f2 e2- | e2 d2 e4 | z8 | z8 | z8 | d4 d4 | G4 d4 | d4 e4 | d6 B2 | c4 B3 c | %40
w: * * * ter|De- * *|* * i,||||Re- gi-|na cae-|li, por-|||
 d2 e4 c2 | d2 B2 B4 | z8 | z8 | e4 d4 | d6 c2 | B2 c2 A4 | G8 | z4 c4 | d8 | c6 BA | G4 A4 | %52
w: |* * ta|||pa- ra-|di- *||si,|Do-|mi-|na _ _|mun- *|
 B4 c4 | d8 | c8- | c8 || z8 | z8 | z8 | g4 e4 | f4 g4 | e2 c2 d4 | c4 d2 e2- | e2 d2 e4 | z8 | %65
w: ||di;|_||||Tu es|_ sin-|gu- * la-||* * ris||
 z8 | z8 | z8 | z8 | z4 e4 | e4 e4 | e8 | d4 f4- | f4 e4- | e2 dc d4 | e4 z2 e2 | A2 A2 d2 d2 | %77
w: ||||Tu|con- ce-|pi-|sti Je-|||sum Tu|con- ce- pi- sti|
 c4 d4 | A4 e4 | c2 d4 c2 | B2 c4 B2 | c4 g4 | e4 f4- | f4 e4 | d4 c4 | d8 | c8 | z2 g2 g2 g2 | %88
w: Je- *|sum si-|ne pec- ca-||to, si-|ne pec-|* ca-|||to,|tu pe- pe-|
 g4 c4 | z8 | z8 | z2 d2 d2 d2 | d4 G4 | z2 g2 g2 g2 | g4 c4 | f3 e d2 c2 | d2 e2 d4 | c4 z2 e2 | %98
w: ri- sti|||tu pe- pe-|ri- sti|tu pe- pe-|ri- sti|cre- * * a-|to- * *|rem et|
 g3 f e3 d | c2 B2 c2 G2 | d2 e2 d4 | G4 z2 G2 | c3 ded f2 | e2 dc d4 | c8 | z8 | z4 z2 d2 | %107
w: sal- va- to- *|||rem mun-|||di||in|
 e2 g3 e f2 | ed g4 ^f2 | g2 d2 e4 | d4 z2 d2 | B2 G2 d4 | G8 | z8 | z8 | c8 | d8 | e8 | d8 | %119
w: quo e- * *|||go, in|quo _ e-|go,|||non|du-|||
 c2 e4 dc | B2 c4 B2 | c8- | c8 ||[M:3/2] e8 d4- | d4 e8 | c8 e4 | e6 c2 d2 e2 | c6 A2 B4 | %128
w: |* * bi-|to.|_|O- *||ra pro|no- * * *||
 c8 c4- | c4 A8 | c8 x4 | z12 | z12 | c8 c4 | c4 d8 | c4 e6 d2 | c8 B4 | c8 x4 | c8 B4 | c4 A8 | %140
w: bis Je-||sum|||Tu- um|di- le-|||ctum|fi- li-||
[M:2/2] G4 d4 | d6 d2 | d4 c4 | d2 e4 d2 |[M:3/2] e8 c4 | c6 d2 e4 | f6 e2 d4 | c8 B4 | c12 | %149
w: um, et|li- be-|ra nos|_ _ _|* ab|o- * *||* mni-|bus|
 A6 B2 c4 | d4 f6 g2 | e2 c2 d8 |[M:2/2] c4 z4 x | c4 d2 e2- | e2 d2 c2 d2- | dc c4 B2 | %156
w: ma- * *|||lis,|ma- * *|||
 c2 e2 f2 g2- | g2 f2 e2 f2 | c4 d4 |[M:3/2] c8 d4 | d6 d2 d4 | c8 d4 | e8 d4 | e12- | e12 | z12 | %166
w: lis, ma- * *|||lis, et|li- be- ra|_ nos|_ _||||
 z12 | z12 | z4 z4 c4 | c6 d2 e4 | f8 e4 | d8 B4 | c4 d8 |[M:2/2] c4 c4- | c2 d6 | e6 d2- | %176
w: ||ab|o- * *||* mni-||bus ma-|||
 d4 c2 d2- | dc c4 B2 | c3 B c2 d2 | B4 c2 G2 | c4 d4 | c8 |] %182
w: |||||lis.|
V:4
 z8 | z8 | G,,8 | A,,8 | G,,8 | C,8 | D,8 | C,8 | z8 | G,8 | A,8 | G,8 | C,3 D, E,2 F,2- | %13
w: ||A-||ve|A-||ve||A-||ve|san- * * ctis-|
 F,E,D,C, D,4 | C,4 z4 | z2 D,2 C,2 B,,2 | A,,4 G,,4 | z4 A,4 | A,6 G,2 | F,4 G,4 | E,8 | D,8 | %22
w: * * * * si-|ma|||Ma-|ri- *|||a,|
 z8 | z8 | z4 D,4 | E,3 F, G,2 C,2 | D,3 E,F,G, A,2 | D,2 G,4 ^F,2 | G,4 z4 | z8 | z4 z2 G,2 | %31
w: ||Ma-|ri- * * *|||a,||ma-|
 A,2 B,2 C4 | B,2 A,4 G,2 | A,2 E,2 F,4 | E,4 C,4 | G,8- | G,8 | z8 | G,4 G,4 | C,4 G,4 | G,4 A,4 | %41
w: * ter De-|||i, _|_|||Re- gi-|na cae-|li, por-|
 G,3 F, G,2 E,2- | E,2 D,2 E,4 | z8 | C,4 G,4 | G,4 D,2 F,2 | G,2 C,2 D,4 | G,,4 z4 | z8 | %49
w: |* * ta||pa- ra-|di- * *||si,||
 z4 z2 G,,2 | A,,3 B,, C,2 D,2 | E,4 F,4 | G,4 A,4 | G,8 | C,8- | C,8 || z8 | z8 | z8 | %59
w: Do-|* * * mi-|na mun-|||di;|_||||
 z2 C4 A,2- | A,2 _B,4 G,2 | A,G, C4 B,2 | C2 A,2 G,2 E,2 | F,2 G,2 C,4 | z8 | z2 A,2 D,3 E, | %66
w: Tu es|_ _ sin-|gu- * la- *||* * ris||Vir- go _|
 F,2 G,4 F,2 | G,3 A, G,2 E,2- | E,2 A,4 ^G,2 | A,8 | z4 A,4 | A,4 A,4 | D,4 D,4 | A,8 | B,8 | %75
w: _ pu- *|||ra.|Tu|con- ce-|pi- sti|Je-||
 A,8 | z8 | z8 | z4 z2 A,2- | A,2 F,2 G,2 E,F, | D,2 C,2 D,4 | C,8- | C,4 _B,,4- | B,,4 C,4 | %84
w: sum|||si-|* ne pec- ca- *||to,|_ pec-||
 G,,4 A,,4 | G,,8 | C,8- | C,4 z2 C2 | C2 C2 C4 | F,2 C2 D2 CB, | A,G, B,2 A,4 | G,8- | G,8 | z8 | %94
w: ca- *||to,|_ tu|pe- pe- ri-|sti cre- a- to- *||rem|_||
 z8 | z8 | z8 | z8 | z8 | z8 | z8 | z4 G,4 | A,8 | G,8 | C,8 | z2 G,2 G,2 F,2 | G,3 F, E,2 D,2 | %107
w: |||||||mun-|||di|in quo _|e- * * *|
 C,2 C4 B,2 | C4 A,4 | G,4 z2 C,2 | G,4 D,4 | z4 z2 D,2 | E,2 C,2 G,4 | A,8 | G,8 | C,2 E,4 D,C, | %116
w: |go, _|_ in|quo _|e-|* go, non|du-|||
 B,,2 C,4 B,,2 | C,8 | z4 G,4 | A,3 G, E,2 F,2 | G,2 C,2 D,4 | C,8- | C,8 || %123
w: * * bi-|to.|non|du- * * *|* * bi-|to.|_|
[M:3/2] E,6 F,2 G,3 A, | F,4 E,4 A,,4 | A,4 A,6 G,2 | E,2 F,2 G,2 E,2 F,2 G,2 | E,2 C,2 D,8 | %128
w: O- * * *|* * ra|pro no- *|||
 C,8 C,4- | C,4 D,8 | A,,8 x4 | A,6 B,2 C4 | A,4 G,8 | A,6 B,2 C4 | A,4 G,8 | A,6 B,2 C4 | %136
w: bis Je-||sum|Tu- * um|_ _|di- * *|le- *||
 A,4 G,8 | C,4 z4 z4 | E,6 F,2 G,4 | E,4 D,8 |[M:2/2] z4 G,4 | G,6 G,2 | G,4 A,4 | G,2 E,2 F,4 | %144
w: |ctum|fi- * *|li- um,|et|li- be-|ra nos|_ _ _|
[M:3/2] E,8 E,4 | E,6 F,2 G,4 | A,6 G,2 F,4 | E,4 D,8 | C,6 D,2 E,4 | F,8 E,4 | D,4 _B,,8 | %151
w: * ab|o- * *|* * mni-||bus _ _|ma- *||
 C,4 G,8 |[M:2/2] C,8 x | E,4 F,2 G,2- | G,2 F,2 E,2 F,2 | C,4 D,4 | C,4 z2 G,2- | %157
w: |lis,|ma- * *|||lis, ma-|
 G,A, _B,2 C2 B,2 | A,4 G,4 |[M:3/2] C,8 G,4 | G,6 G,2 G,4 | A,8 G,4 | E,4 F,8 | E,8 C,4 | %164
w: ||lis, et|li- be- ra|_ nos|_ _|* ab|
 C,6 D,2 E,4 | F,8 E,4 | D,8 B,,4 | C,4 D,8 | C,6 D,2 E,4 | F,2 G,2 A,2 B,2 C4 | F,8 C,4 | %171
w: o- * *||* mni-||bus _ _|_ _ _ _ _|ma- *|
 D,8 G,4 | A,4 G,8 |[M:2/2] C,3 D, E,2 F,2- | F,E, F,2 G,4- | G,2 A,4 F,2 | G,4 E,2 F,2- | %177
w: ||||||
 F,C, E,2 D,4 | C,4 x4 | z2 G,,2 C,2 B,,2 | A,,4 G,,4 | C,8 |] %182
w: |lis,|ma- * *||lis.|

